X:161
M:4/4
L:1/4
K:G
B | d3/2 c/ B G | B A G D | E G G3/2 A/ | F3 A | d3/2 c/ B e/d/ | c3/2 B/ A B | G B d3/2 ^c/ | B3 d | d3/2 d/ e d | d3/2 c/ B B | G3/2 G/ c e | A3 !sintro!A | d3/2 d/ e d | c d B A | G3/2 G/ G F | G3 !eintro!|]
